X:1
T:James Gibb editions
T:Vedrassi prima - Palestrina
T:#
%%score [ 1 2 3 4 ]
L:1/8
Q:1/4=120
M:4/4
K:F
V:1 treble nm="Soprano" snm="S"
V:2 treble nm="Alto" snm="A"
V:3 treble-8 nm="Tenor" snm="T"
V:4 bass nm="Bass" snm="B"
V:1
"^Vedrassi prima""^Giovanni Pierluigi da Palestrina\n(1525-94)" z8 | z4 c4 | c2 c2 B4 | A2 A4 A2 | %4
w: |Ve-|dras- si pri-|ma sen- za|
 G4 B4 | A8 |[M:4/4] G6 c2 | A2 B2 c2 d2 | c6 B2 | G2 F2 G4 | A2 A2 F2 G2 | A2 G2 A4- | %12
w: lu- ce~~il|so-|le, E|gi- re- ran- no~~in|ciel tut-|te le stel-|le, e gi- re-|ran- no~~in ciel|
 A2 c2 c2 c2 | d4 c2 c2 | c2 c2 c2 c2 | (c2 =B2) c2 G2 | c6 c2 | f2 e2 d2 c2 | B2 d2 d2 c2 | %19
w: * tut- te le|stel- le Men|lu- ci- de~~e men|bel\- * le; Che|voi, che|voi sia- te da|me ser- vi- ta~~e~~a-|
 B4 A4 | c6 c2 | c2 d4 e2 | f4 e4 | z8 | z8 | c6 c2 | c2 d4 d2 | d4 c4- | %28
w: ma- ta|Don- na|so- vr'o- gni|don- na,|||don- na|so- vr'o- gni|don- na|
 c2[Q:1/4=118] B2[Q:1/4=115] A2[Q:1/4=112] G2- |[Q:1/4=110] G2[Q:1/4=107] c2[Q:1/4=103] c4 | %30
w: * in- giu- sta|* e~~in- gra-|
[Q:1/4=101] A16 |] %31
w: ta.|
V:2
 z4 G4 | G2 G2 F4 | E2 E4 D2 | D2 D2 C4 | C2 G4 G2 | (F3 E/D/ E2) F2 |[M:4/4] D4 E2 E2 | %7
w: Ve-|dras- si pri-|ma sen- za|lu- ce~~il so-|le, sen- za|lu\- * * * ce~~il|so- le, E|
 F2 G2 A2 B2 | (A2 G2) A2 GF | (E2 F4 E2) | F2 F2 A2 G2 | F2 E2 F4- | F2 A2 A2 G2 | B4 A2 A2 | %14
w: gi- re- ran- no~~in|ciel * tut- te le|stel\- * *|le, e gi- re-|ran- no~~in ciel|* tut- te le|stel- le Men|
 A2 A2 A2 G2 | G4 E4 | z2 G2 A2 G2 | A2 A2 B2 A2 | G4 E2 ^F2 | G4 ^F4 | G6 A2 | G2 B4 B2 | c4 c4 | %23
w: lu- ci- de~~e men|bel- le;|Che voi sia-|te da me ser-|vi- ta e~~a-|ma- ta|Don- na|so- vr'o- gni|don- na|
 z4 G4 | F2 E2 D4 | E2 G4 A2 | G2 B4 B2 | B4 A4 | G2 F2 E3 F | (G2 F4 E2) | F16 |] %31
w: in-|giu- sta~~e~~in- gra-|ta, don- na|so- vr'o- gni|don- na|in- giu- sta e~~in-|gra\- * *|ta.|
V:3
 e4 e2 e2 | d4 c4 | z8 | f4 f2 f2 | e4 d2 d2- | d2 d2 c2 c2 |[M:4/4][K:treble-8] (c2 =B2) c4 | z8 | %8
w: Ve- dras- si|pri- ma,||Ve- dras- si|pri- ma sen\-|* za lu- ce~~il|so\- * le,||
 z2 c2 A2 B2 | c2 d2 c4 | F4 z2 c2 | A2 B2 c2 d2 | c2 f2 e2 e2 | f4 f2 f2 | f2 f2 e2 e2 | d4 c4 | %16
w: E gi- re-|ran- no~~in cie-|lo, e|gi- re- ran- no~~in|ciel tut- te le|stel- le, Men|lu- ci- de~~e men|bel- le;|
 z2 c2 f2 e2 | d2 c2 B2 F2 | G4 A4 | G4 d4 | e6 f2 | e2 f4 g2 | a4 g4- | g2 f2 e2 d2- | %24
w: Che voi sia-|te da me ser-|vi- ta~~e~~a-|ma- ta|Don- na|so- vr'o- gni|don- na|* in- giu- sta~~e~~in\-|
 d2 (c4 =B2) | c2 e4 f2 | e2 f4 g2 | f4 f4 | z4 c4 | B2 A2 G4 | F16 |] %31
w: * gra\- *|ta, don- na|so- vr'o- gni|don- na|in-|giu- sta~~e~~in- gra-|ta.|
V:4
 C4 C2 C2 | B,4 A,2 A,2- | A,2 A,2 G,2 G,2 | F,8 | C,4 G,4 | D,4 A,2 F,2 |[M:4/4] G,4 C,4 | z8 | %8
w: Ve- dras- si|pri- ma sen\-|* za lu- ce~~il|so-|le, sen-|za lu- ce~~il|so- le,||
 z8 | z8 | z2 F,2 D,2 E,2 | F,2 G,2 F,4- | F,2 F,2 A,2 C2 | B,4 F,2 F,2 | F,2 F,2 A,2 C2 | %15
w: ||E gi- re-|ran- no~~in ciel|* tut- te le|stel- le Men|lu- ci- de~~e men|
 G,4 C,4 | z8 | z8 | z8 | z8 | C6 F,2 | C2 B,4 G,2 | F,4 C4 | B,2 A,2 G,4- | G,8 | C,2 C4 F,2 | %26
w: bel- le;|||||Don- na|so- vr'o- gni|don- na~~in-|giu- sta~~e~~in gra\-||ta, don- na|
 C2 B,4 G,2 | B,4 F,4 | E,2 D,2 C,4- | C,8 | F,16 |] %31
w: so- vr'o- gni|don- na~~in-|giu- sta~~e~~in- gra\-||ta.|

